**kern	**kern	**dynam
*part1	*part1	*part1
*staff2	*staff1	*
*I"Piano	*	*
*clefF4	*clefG2	*
*k[]	*k[]	*
=1	=1	=1
4AAA 4AA	(16ff#XLL	.
.	16f#X	.
.	16a	.
.	16cc#X	>
8BBB 8BB	16b	.
.	16aJJ)	.
=	=	=
*	*^	*
4EEE) 4EE	(16gLL	4g	]
.	16b	.	.
.	16ee	.	.
!	!LO:TX:b:i:t=dim.	!	!
.	16ddn	.	.
8r	16ccn	8r	.
.	16bJJ)	.	.
*	*v	*v	*
=	=	=
(4.FF 4.F	(16eLL 16a	p
.	16g	.
.	16f	.
.	16e	.
.	16d	.
.	16cJJ)	.
=	=	=
*	*^	*
4.DD 4.D	(16BLL	4B	<
.	16d	.	.
.	16f	.	.
.	16a	.	.
.	16g#X	8f	.
.	16bJJ)	.	.
=	=	=	=
4EE) 4E	(16eLL	8cL	[ >
.	16aJ	.	.
.	8c) 8e	16BL	.
.	.	16AJ<	]
8EEE' 8EE	8dJ 8e	8G#XJ<	.
=	=	=	=
(4.AA 4.A	(8eL	16cLL	.
.	.	16A<	.
.	8a	16e	.
.	.	16c<	.
.	8ccJ)	16a	<
.	.	16eJJ	.
*	*v	*v	*
=	=	=
4DD 4D	(16bLL	[
.	16B	>
.	16d	.
.	16f#X	.
8EE 8E	16e	.
.	16dJJ)	.
=	=	=
*-	*-	*-
!!!system-decoration: {(s1,s2)}
!!!RDF**kern: < = below
